X:0
T:Wreath, The
M:C|
C:© Paul Gitlitz 2009
K:E
"E"GBeB GBeB|GBeg fecB|"A"Acec Acec|Aceg fedc|!
"B"Bdfd Bdfd|Bdfa gfed|"E"e2eg "B"fedc|"E"B2Bc BAGF|
"E"GBeB GBeB|GBeg fecB|"A"Acec Acec|Aceg fedc|!
"B"Bdfd Bdfd|Bdfa gfed|"E"e2eg "B"fedf|"E"e4- e2fg|!
|:"A"ac2c c2ea|"E"gB2B B2fg|"B"f2fg fedf|"E"edef g2fg|!
"A"ac2c c2ea|"E"gB2B B2fg|"B"f2fg fedf|"E"egfd e4:|!
